X:91
T:Garryowen. JBs.091
S:Jas.Blackshaw MS, 1837, N.Shropshire
A:North Shropshire
Z:T. Weatherall 2006
C:Untitled in MS
M:6/8
L:1/8
Q:3/8=120
R:Jig
K:G
g|edc BAG|B>cB B2g/f/|edc BAG|A>BA A2g|!
edc BAG|B>cB B2d|def g2B|A>BAG2:|!
|:B|d2Bd2B|d>ed d3|e2ce2c|e>fe e2f|!
g2ab2a|gfe d2d|defg2B|A>BA G2:|

